dapp/src/images/setting-icon.svg

<svg fill="none" height="29" viewBox="0 0 29 29" width="29" xmlns="http://www.w3.org/2000/svg"><g stroke="#b2b7bf" stroke-linecap="round" stroke-linejoin="round" stroke-width="1.75429"><path d="m12.9389 5.35283c0-.72665.589-1.31572 1.3157-1.31572h1.3157c.7267 0 1.3157.58907 1.3157 1.31572l.158 1.10564c.1414.98996 1.2919 1.46651 2.0919.8665l.8935-.67012c.5138-.51382 1.3469-.51382 1.8607 0l.9303.93035c.5139.51382.5139 1.34689 0 1.86071l-.6701.89349c-.6.8-.1234 1.9505.8665 2.0919l1.1057.158c.7266 0 1.3157.589 1.3157 1.3157v1.3157c0 .7266-.5891 1.3157-1.3157 1.3157l-1.1057.158c-.9899.1414-1.4665 1.2919-.8665 2.0919l.6701.8935c.5139.5138.5139 1.3469 0 1.8607l-.9303.9303c-.5138.5138-1.3469.5138-1.8607 0l-.8935-.6701c-.8-.6-1.9505-.1235-2.0919.8665l-.158 1.1057c0 .7266-.589 1.3157-1.3157 1.3157h-1.3157c-.7267 0-1.3157-.5891-1.3157-1.3157l-.158-1.1057c-.1414-.99-1.2919-1.4665-2.0919-.8665l-.89349.6701c-.51382.5138-1.34688.5138-1.8607 0l-.93035-.9303c-.51382-.5138-.51382-1.3469 0-1.8607l.67012-.8935c.60001-.8.12346-1.9505-.8665-2.0919l-1.10565-.158c-.72664 0-1.31571-.5891-1.31571-1.3157v-1.3157c0-.7267.58907-1.3157 1.31571-1.3157l1.10564-.158c.98997-.1414 1.46651-1.2919.8665-2.0919l-.67011-.89349c-.51382-.51382-.51382-1.34689 0-1.86071l.93035-.93035c.51382-.51382 1.34688-.51382 1.8607 0l.89349.67012c.8.60001 1.9505.12346 2.0919-.8665z" opacity=".5"/><circle cx="14.9123" cy="14.5617" opacity=".5" r="2.33905"/></g></svg>

<svg width="29" height="29" viewBox="0 0 29 29" fill="none" xmlns="http://www.w3.org/2000/svg">
<path opacity="0.5" d="M12.9389 5.35283C12.9389 4.62618 13.5279 4.03711 14.2546 4.03711H15.5703C16.297 4.03711 16.886 4.62618 16.886 5.35283L17.044 6.45847C17.1854 7.44843 18.3359 7.92498 19.1359 7.32497L20.0294 6.65485C20.5432 6.14103 21.3763 6.14103 21.8901 6.65485L22.8204 7.5852C23.3343 8.09902 23.3343 8.93209 22.8204 9.44591L22.1503 10.3394C21.5503 11.1394 22.0269 12.2899 23.0168 12.4313L24.1225 12.5893C24.8491 12.5893 25.4382 13.1783 25.4382 13.905V15.2207C25.4382 15.9473 24.8491 16.5364 24.1225 16.5364L23.0168 16.6944C22.0269 16.8358 21.5503 17.9863 22.1503 18.7863L22.8204 19.6798C23.3343 20.1936 23.3343 21.0267 22.8204 21.5405L21.8901 22.4708C21.3763 22.9846 20.5432 22.9846 20.0294 22.4708L19.1359 21.8007C18.3359 21.2007 17.1854 21.6772 17.044 22.6672L16.886 23.7729C16.886 24.4995 16.297 25.0886 15.5703 25.0886H14.2546C13.5279 25.0886 12.9389 24.4995 12.9389 23.7729L12.7809 22.6672C12.6395 21.6772 11.489 21.2007 10.689 21.8007L9.79551 22.4708C9.28169 22.9846 8.44863 22.9846 7.93481 22.4708L7.00446 21.5405C6.49064 21.0267 6.49064 20.1936 7.00446 19.6798L7.67458 18.7863C8.27459 17.9863 7.79804 16.8358 6.80808 16.6944L5.70243 16.5364C4.97579 16.5364 4.38672 15.9473 4.38672 15.2207V13.905C4.38672 13.1783 4.97579 12.5893 5.70243 12.5893L6.80807 12.4313C7.79804 12.2899 8.27458 11.1394 7.67457 10.3394L7.00446 9.44591C6.49064 8.93209 6.49064 8.09902 7.00446 7.5852L7.93481 6.65485C8.44863 6.14103 9.28169 6.14103 9.79551 6.65485L10.689 7.32497C11.489 7.92498 12.6395 7.44843 12.7809 6.45847L12.9389 5.35283Z" stroke="#B2B7BF" stroke-width="1.75429" stroke-linecap="round" stroke-linejoin="round"/>
<circle opacity="0.5" cx="14.9123" cy="14.5617" r="2.33905" stroke="#B2B7BF" stroke-width="1.75429" stroke-linecap="round" stroke-linejoin="round"/>
</svg>
